X:1
T:Compassion, 10.10.10.6
T:Compassion, 10.10.10.6
T:G. W. Turner, before 1913
T:Public Domain Courtesy of the Cyber Hymnal™
C:G. W. Turner, before 1913
Z:Public Domain
Z:Courtesy of the Cyber Hymnal™
%%score ( 1 2 ) ( 3 4 )
L:1/8
M:4/4
K:A
V:1 treble 
V:2 treble 
V:3 bass 
V:4 bass 
V:1
 [EA]4 [EG]2 [EB]2 | [EA]4 [=Ge]4 | [Fe]2 [Fd]2 [Ec]2 [EB]2 | [Ec]8 | [^Ec]4 [Ec]2 [EB]2 | %5
 [FA]4 [EG]4 | [EF]2 [EA]2 [EG]2 [^DF]2 | E8 | [Ee]4 [Ed]2 [Ec]2 | [Fd]4 [DF]4 | %10
 [DA]2 [DG]2 [DF]2 [DG]2 | [CA]8 | [EA]4 [FA]2 [=FB]2 | [EA]4 [EG]4 | [EA]8 |] %15
V:2
 x8 | x8 | x8 | x8 | x8 | x8 | x8 | E8 | x8 | x8 | x8 | x8 | x8 | x8 | x8 |] %15
V:3
 [A,C]4 [B,D]2 [G,D]2 | [A,C]4 [C,A,]4 | [D,A,]2 [D,A,]2 [E,A,]2 [E,G,]2 | [A,,A,]8 | %4
 [C,G,]4 [C,G,]2 [C,C]2 | [F,C]4 [G,B,]4 | [A,C]2 [F,C]2 B,2 [B,,A,]2 | [E,G,]8 | %8
 [C,A,]4 [C,G,]2 [A,,A,]2 | [D,A,]4 [D,B,]4 | [E,B,]2 [E,B,]2 [E,A,]2 [E,B,]2 | [F,A,]8 | %12
 [C,A,]4 [D,A,]2 [D,D]2 | (B,2 C2) [E,D]4 | [A,,C]8 |] %15
V:4
 x8 | x8 | x8 | x8 | x8 | x8 | x4 B,2 x2 | x8 | x8 | x8 | x8 | x8 | x8 | E,4 x4 | x8 |] %15

